src/images/footer/reddit.svg

<svg width="24" height="24" viewBox="0 0 24 24" fill="none" xmlns="http://www.w3.org/2000/svg">
<path d="M12 24C18.6274 24 24 18.6274 24 12C24 5.37258 18.6274 0 12 0C5.37258 0 0 5.37258 0 12C0 18.6274 5.37258 24 12 24Z" fill="#D0D0DA"/>
<path d="M20.0002 12.0003C20.0002 11.0319 19.2143 10.2459 18.2459 10.2459C17.7687 10.2459 17.3476 10.4284 17.0388 10.7371C15.8459 9.88098 14.1897 9.31958 12.3652 9.2494L13.1652 5.50204L15.7617 6.0494C15.7897 6.70905 16.3371 7.24239 17.0108 7.24239C17.6985 7.24239 18.2599 6.68098 18.2599 5.99326C18.2599 5.30555 17.6985 4.74414 17.0108 4.74414C16.5195 4.74414 16.0985 5.02484 15.902 5.4459L12.9967 4.82835C12.9125 4.81432 12.8283 4.82835 12.7581 4.87046C12.688 4.91256 12.6459 4.98274 12.6178 5.06695L11.7336 9.2494C9.86692 9.30555 8.19674 9.85291 6.98972 10.7371C6.68095 10.4424 6.24586 10.2459 5.78271 10.2459C4.81429 10.2459 4.02832 11.0319 4.02832 12.0003C4.02832 12.7161 4.44937 13.3196 5.06692 13.6003C5.03885 13.7687 5.02481 13.9512 5.02481 14.1336C5.02481 16.8284 8.15464 19.0038 12.0283 19.0038C15.902 19.0038 19.0318 16.8284 19.0318 14.1336C19.0318 13.9512 19.0178 13.7827 18.9897 13.6143C19.5652 13.3336 20.0002 12.7161 20.0002 12.0003V12.0003ZM8.00025 13.2494C8.00025 12.5617 8.56165 12.0003 9.24937 12.0003C9.93709 12.0003 10.4985 12.5617 10.4985 13.2494C10.4985 13.9371 9.93709 14.4985 9.24937 14.4985C8.56165 14.4985 8.00025 13.9371 8.00025 13.2494ZM14.9757 16.5477C14.1195 17.4038 12.4915 17.4599 12.0143 17.4599C11.5371 17.4599 9.89499 17.3898 9.05288 16.5477C8.92657 16.4213 8.92657 16.2108 9.05288 16.0845C9.1792 15.9582 9.38972 15.9582 9.51604 16.0845C10.0494 16.6178 11.2003 16.8143 12.0283 16.8143C12.8564 16.8143 13.9932 16.6178 14.5406 16.0845C14.6669 15.9582 14.8774 15.9582 15.0038 16.0845C15.102 16.2248 15.102 16.4213 14.9757 16.5477V16.5477ZM14.7511 14.4985C14.0634 14.4985 13.502 13.9371 13.502 13.2494C13.502 12.5617 14.0634 12.0003 14.7511 12.0003C15.4388 12.0003 16.0002 12.5617 16.0002 13.2494C16.0002 13.9371 15.4388 14.4985 14.7511 14.4985Z" fill="#121212"/>
</svg>

<svg xmlns="http://www.w3.org/2000/svg" xml:space="preserve" fill-rule="evenodd" stroke-linejoin="round" stroke-miterlimit="2" clip-rule="evenodd" viewBox="0 0 24 24"><path fill="#d0d0da" d="M14.976 16.548c-.857.856-2.485.912-2.962.912-.477 0-2.119-.07-2.961-.912a.332.332 0 0 1 0-.464.33.33 0 0 1 .463 0c.533.534 1.684.73 2.512.73.828 0 1.965-.196 2.513-.73a.33.33 0 0 1 .463 0 .363.363 0 0 1-.028.464ZM8 13.249C8 12.562 8.562 12 9.249 12c.688 0 1.249.562 1.249 1.249 0 .688-.561 1.249-1.249 1.249A1.252 1.252 0 0 1 8 13.249Zm6.751 1.25a1.253 1.253 0 0 1-1.249-1.25c0-.687.561-1.249 1.249-1.249.688 0 1.249.562 1.249 1.249 0 .688-.561 1.249-1.249 1.249Z"/><path fill="#d0d0da" d="M12 24c6.627 0 12-5.373 12-12S18.627 0 12 0 0 5.373 0 12s5.373 12 12 12Zm8-12c0-.968-.786-1.754-1.754-1.754-.477 0-.898.182-1.207.491-1.193-.856-2.849-1.417-4.674-1.488l.8-3.747 2.597.547a1.25 1.25 0 0 0 2.498-.056c0-.687-.561-1.249-1.249-1.249-.491 0-.912.281-1.109.702l-2.905-.618a.35.35 0 0 0-.239.042.346.346 0 0 0-.14.197l-.884 4.182c-1.867.057-3.537.604-4.744 1.488a1.77 1.77 0 0 0-1.207-.491c-.969 0-1.755.786-1.755 1.754 0 .716.421 1.32 1.039 1.6a3.301 3.301 0 0 0-.042.534c0 2.694 3.13 4.87 7.003 4.87 3.874 0 7.004-2.176 7.004-4.87 0-.183-.014-.351-.042-.52A1.815 1.815 0 0 0 20 12Z"/></svg>
